X: 742
T: Song gege
L: 1/8
M: 4/4
K: G
c> B e d c BA2 [I:setbarnb 1]| 
c> B e d c BA2 | 
^c d =c A G A F E | 
D D E CD4 | 
A ED2A ED2 | 
c2c d e BA2 | 
c E G B A G F E | 
D2E CD4 |]

@@@ Tune index: 9616
